X:1
T:Title
%%score { ( 1 4 ) | ( 2 3 ) }
L:1/8
M:6/8
K:C
V:1 treble nm="Grand Piano"
V:4 treble 
V:2 bass 
V:3 bass 
V:1
 z3 z2[Q:1/4=75] E/D/ | CE[EG] [FA][EG][EG] | [Ec][CE][FA] [EG]2 [DF]/[CE]/ | [B,D][DF][EG] BBA | %4
 [EG][_E^F][EA] [=EG]2 E/D/ | CE[DF] [EG][_E^F][=EG] | AFA [EG]2 [EG] | [Gc][GB][Gc] dcA | %8
[M:5/8] Gc[FB] [Ec]2 |[M:1/8] [EG] |[M:3/4] [EG]A B [Ec]2 [Ec]/[Ec]/ | dc A [CEG]2 [G,CE] | %12
 [G,CE][G,DF] [CEG][CFA] [CEG][K:bass][G,CE] | z2 z2 z[K:treble] .[G,E] | CE [DF][EG] [_E^F][=EG] | %15
 AF A [EG]2 [EG] | [Gc][GB] [Gc]d cA |[M:5/8] Gc[FB] [Ec]2 |] %18
V:2
 z3 z2 .G, | [C,E,][C,G,C][C,C] [C,C][C,C][C,C] | [C,G,][C,G,][C,C] [C,C]2 [C,G,] | %3
 [G,,G,][G,,G,][G,,G,][K:treble] [G,G][G,G][G,B,F] | z3 z2 .G, | %5
 [C,E,][C,G,C][C,G,] [C,C][C,C][C,C] | [F,CF][F,A,][F,CF] [C,C]2 [C,C] | %7
 [E,C][E,C][E,C] [F,A,F][F,A,F][F,CF] |[M:5/8] [G,CE][G,E][G,,G,] [B,,G,]2 |[M:1/8] [C,C] | %10
[M:3/4] [C,C][K:treble][F,CF] [G,F][K:bass] [C,G,]2 [C,G,]/[C,G,]/ | [F,A,F][F,A,F] [F,CF] C,2 C, | %12
 C,C, C,C, C,C, | A,,A,, D, G,,2 z/ F,/ | [C,E,][C,G,C] [C,G,][C,C] [C,C][C,C] | %15
 [F,CF][F,A,] [F,CF] [C,C]2 [C,C] | [E,C][E,C] [E,C][F,A,F] [F,A,F][F,CF] | %17
[M:5/8] [G,CE][G,E][G,,G,] [C,G,]2 |] %18
V:3
 z3 z2 [C,C]/-[C,F,C]/ | x6 | x6 | x3[K:treble] x3 | [C,C][C,A,][C,^F,] [C,G,]2 [C,C]/-[C,=F,C]/ | %5
 x6 | x6 | x6 |[M:5/8] x5 |[M:1/8] x |[M:3/4] x[K:treble] x2[K:bass] x3 | x6 | x6 | z2 z2 z G,, | %14
 x6 | x6 | x6 |[M:5/8] x5 |] %18
V:4
 x6 | x6 | x6 | x6 | x6 | x6 | x6 | x6 |[M:5/8] x5 |[M:1/8] x |[M:3/4] x6 | x6 | x5[K:bass] x | %13
 [^F,CE][F,CD] [F,C] [G,B,D]2[K:treble] B,/-[B,D]/ | x6 | x6 | x6 |[M:5/8] x5 |] %18

